icons/1_Primary/Autistici.svg

<svg width="1024" height="1024" viewBox="0 0 1024 1024" fill="none" xmlns="http://www.w3.org/2000/svg">
<g clip-path="url(#clip0_2_1536)">
<path d="M512 1024C794.77 1024 1024 794.77 1024 512C1024 229.23 794.77 0 512 0C229.23 0 0 229.23 0 512C0 794.77 229.23 1024 512 1024Z" fill="#FF837D"/>
<path d="M767 458.199C766.8 457.299 766.6 456.499 766.4 455.599C765.5 451.899 764.5 448.099 763 444.599C754.3 424.799 740.3 410.899 718.6 406.199C706.6 403.599 695.1 406.899 684.1 411.699C661.3 421.599 639.5 433.599 617.2 444.599C599.8 453.099 582.5 461.899 565.2 470.699C564.8 470.899 564.4 471.099 564 471.199L548.2 459.999C548.2 457.899 548.8 455.099 549.7 450.799C555 426.899 560.4 403.099 565.7 379.199C569.6 361.499 574 343.899 577.1 326.099C580.5 306.699 572.5 291.199 558.1 278.899C541.5 264.599 521.8 261.699 500.7 264.299C494.5 265.099 488.6 266.299 482.8 268.299C465.4 274.399 453.5 291.899 451.9 310.099C450.4 326.899 454.3 342.699 456.7 358.899C460.5 383.899 464.6 408.799 468.7 433.799C469.9 441.199 471.3 448.599 472.6 455.999C472.9 457.499 473 458.799 473 460.199L458.7 472.999C456.9 472.499 454.6 471.199 451.1 469.099C415.6 448.599 380.2 428.199 344.6 407.899C305.1 385.399 264.8 414.299 257.8 450.799C255.2 464.099 255.6 477.399 261 490.199C267.7 506.199 280.6 515.199 296.2 521.099C310.4 526.499 325.5 527.799 340.3 529.999C372.2 534.899 404.1 539.699 436.1 544.499C436.3 544.499 436.6 544.599 436.8 544.599L443.8 562.399C442.5 564.399 439.4 566.099 437.4 567.899C426.4 577.899 415 587.499 404.1 597.599C383.8 616.499 362.3 633.999 342.6 653.699C334.3 661.999 329.7 672.399 327.6 683.999C325.2 697.399 328.1 709.799 334.9 720.899C348.3 742.599 368 754.599 393.8 755.399C411.7 755.999 425.3 747.499 436.4 734.299C443.5 725.899 449 716.399 454 706.599C470.6 673.899 487.5 641.299 504 608.499C504.5 607.599 505 606.799 505.6 606.199L523.5 605.299C524.1 606.399 524.6 607.799 525.1 608.999C536.8 635.299 548.4 661.599 560.1 687.899C565.1 699.199 570.3 710.399 575 721.799C582.9 740.899 595.6 754.699 615.9 760.499C615.9 760.499 625.7 763.199 635.6 760.499C641.4 758.799 647.5 758.099 653.1 755.499C675.1 745.299 690.1 729.099 694.8 704.899C698 688.299 691.4 674.099 681.6 660.999C671.3 647.199 657.9 636.399 645.9 624.199C629.3 607.299 612.5 590.699 595.7 574.099C591.4 569.899 587 565.799 582.6 561.799C582.2 561.399 581.9 561.099 581.6 560.699L586.5 543.799L618 539.899C628.4 539.099 638.8 538.199 649.2 536.899C674.7 533.699 700.6 533.299 725.9 528.599C746.8 524.699 762.7 512.499 766.3 489.199L766.6 487.699C766.4 487.999 769.3 469.699 767 458.199Z" fill="white"/>
</g>
<defs>
<clipPath id="clip0_2_1536">
<rect width="1024" height="1024" fill="white"/>
</clipPath>
</defs>
</svg>

<svg xmlns="http://www.w3.org/2000/svg" viewBox="0 0 1024 1024">
   <circle cx="512" cy="512" r="512" style="fill:#fc0a16"/>
   <path d="M767 458.2c-.2-.9-.4-1.7-.6-2.6-.9-3.7-1.9-7.5-3.4-11-8.7-19.8-22.7-33.7-44.4-38.4-12-2.6-23.5.7-34.5 5.5-22.8 9.9-44.6 21.9-66.9 32.9-17.4 8.5-34.7 17.3-52 26.1-.4.2-.8.4-1.2.5L548.2 460c0-2.1.6-4.9 1.5-9.2 5.3-23.9 10.7-47.7 16-71.6 3.9-17.7 8.3-35.3 11.4-53.1 3.4-19.4-4.6-34.9-19-47.2-16.6-14.3-36.3-17.2-57.4-14.6-6.2.8-12.1 2-17.9 4-17.4 6.1-29.3 23.6-30.9 41.8-1.5 16.8 2.4 32.6 4.8 48.8 3.8 25 7.9 49.9 12 74.9 1.2 7.4 2.6 14.8 3.9 22.2.3 1.5.4 2.8.4 4.2L458.7 473c-1.8-.5-4.1-1.8-7.6-3.9-35.5-20.5-70.9-40.9-106.5-61.2-39.5-22.5-79.8 6.4-86.8 42.9-2.6 13.3-2.2 26.6 3.2 39.4 6.7 16 19.6 25 35.2 30.9 14.2 5.4 29.3 6.7 44.1 8.9 31.9 4.9 63.8 9.7 95.8 14.5.2 0 .5.1.7.1l7 17.8c-1.3 2-4.4 3.7-6.4 5.5-11 10-22.4 19.6-33.3 29.7-20.3 18.9-41.8 36.4-61.5 56.1-8.3 8.3-12.9 18.7-15 30.3-2.4 13.4.5 25.8 7.3 36.9 13.4 21.7 33.1 33.7 58.9 34.5 17.9.6 31.5-7.9 42.6-21.1 7.1-8.4 12.6-17.9 17.6-27.7 16.6-32.7 33.5-65.3 50-98.1.5-.9 1-1.7 1.6-2.3l17.9-.9c.6 1.1 1.1 2.5 1.6 3.7 11.7 26.3 23.3 52.6 35 78.9 5 11.3 10.2 22.5 14.9 33.9 7.9 19.1 20.6 32.9 40.9 38.7 0 0 9.8 2.7 19.7 0 5.8-1.7 11.9-2.4 17.5-5 22-10.2 37-26.4 41.7-50.6 3.2-16.6-3.4-30.8-13.2-43.9-10.3-13.8-23.7-24.6-35.7-36.8-16.6-16.9-33.4-33.5-50.2-50.1-4.3-4.2-8.7-8.3-13.1-12.3-.4-.4-.7-.7-1-1.1l4.9-16.9 31.5-3.9c10.4-.8 20.8-1.7 31.2-3 25.5-3.2 51.4-3.6 76.7-8.3 20.9-3.9 36.8-16.1 40.4-39.4l.3-1.5c-.2.3 2.7-18 .4-29.5z" style="fill:#fff"/>
</svg>
